!!!OTL: "Der Kehraus" SPIELTS MIA AF AN WALZA
!!!ARE: Europa, Mitteleuropa, Deutschland, Boehmen
!!!SCT: Z1345
!!!YEM: Copyright 1995, estate of Helmut Schaffrath.
**kern
*ICvox
*Ivox
*M3/4
*k[b-e-]
*B-:
=1
{8b-
8cc
4dd
4dd
=2
4dd
4.ff}
{8dd
=3
8dd
8cc
4.ee-
8cc
=4
8ee-
8dd
8gg
8ff
4ff}
=5
{8b-
8cc
4dd
4dd
=6
4dd
4.ff}
{8dd
=7
8dd
8cc
4.ee-
8ff
=8
4dd
2r}
=9
{4cc
4dd
4ee-
=10
8ee-
8dd
8gg
8ff
4ff}
=11
{4cc
4dd
4ee-
=12
8ee-
8dd
8gg
8ff
4ff}
=13
{8b-
8cc
4dd
4dd
=14
4dd
4.ff}
{8dd
=15
8dd
8cc
4.ee-
8cc
=16
8ee-
8dd
8gg
8ff
4ff}
=17
{8b-
8cc
4dd
4dd
=18
4dd
4.ff}
{8dd
=19
8dd
8cc
4.ee-
8ff
=20
4dd
2r}
==
!!!AGN: Zech -, Schalks - Lied
!!!ONB: ESAC (Essen Associative Code) Database: ZUCCAL
!!!AMT: simple triple
!!!AIN: vox
!!!EED: Helmut Schaffrath
!!!EEV: 1.0
*-
